X:108
T:The Salmon's Leap
C:Randal Bays
M:9/8
L:1/8
R:Slip Jig
K:Emin
|: e3 edc BAG | EAA ABc Bcd | e3 edc BAG | EAc BAG A3 :|
Ace aed cBA | GBd gdc BAG | Ace aed cBA | BAG EFG A3 |
Ace aed cBA | GBd gdc BAG | E2A GBB Acc | Bdd c2e de=f |

%%newpage
%%scale .7
%%staffsep 35

